X: 1
T: Paddy On The Turnpike
R: reel
M: 4/4
L: 1/8
K: Ador
AG |: EAAB A2AB | cAdB cBAG | EGGF G2GA | BGAF GFED |
EAAB A2AB | cBAB cdef | gage dBGB |1 cABG A2AG :|2 cABG A2cd |:
eaab a2af | bfaf gfed | efga g2gf | bfaf gfed | eaab a2af | bfaf gfef |
gage dBGB |1 cABG A2cd :|2 cABG A2z2||


Tune 338	Setting 28220

